src/build/icons/LineIcons/settings.svg

<svg width="40" height="40" version="1.1" viewBox="0 -2 40 40" xmlns="http://www.w3.org/2000/svg">
 <g fill="none" fill-rule="evenodd">
  <g transform="translate(-148,-357)" fill="#f00">
   <path d="m182 387c0 1.104-0.896 2-2 2h-24c-1.104 0-2-0.896-2-2v-24c0-1.104 0.896-2 2-2h24c1.104 0 2 0.896 2 2v24zm-2-28h-24c-2.209 0-4 1.791-4 4v24c0 2.209 1.791 4 4 4h24c2.209 0 4-1.791 4-4v-24c0-2.209-1.791-4-4-4zm-8 19.4c-1.326 0-2.4-1.075-2.4-2.4s1.074-2.4 2.4-2.4 2.4 1.075 2.4 2.4-1.074 2.4-2.4 2.4zm6-3.4h-2.142c-0.445-1.723-1.996-3-3.858-3s-3.412 1.277-3.858 3h-10.142c-0.552 0-1 0.448-1 1 0 0.553 0.448 1 1 1h10.142c0.445 1.723 1.996 3 3.858 3s3.413-1.277 3.858-3h2.142c0.552 0 1-0.447 1-1 0-0.552-0.448-1-1-1zm-15-4.6c-1.326 0-2.4-1.075-2.4-2.4s1.074-2.399 2.4-2.399 2.4 1.074 2.4 2.399-1.074 2.4-2.4 2.4zm15-3.4h-11.142c-0.445-1.723-1.996-3-3.858-3s-3.413 1.277-3.858 3h-1.142c-0.552 0-1 0.448-1 1 0 0.553 0.448 1 1 1h1.142c0.445 1.723 1.996 3 3.858 3s3.413-1.277 3.858-3h11.142c0.552 0 1-0.447 1-1 0-0.552-0.448-1-1-1zm-15 19.4c-1.326 0-2.4-1.075-2.4-2.4s1.074-2.399 2.4-2.399 2.4 1.074 2.4 2.399-1.074 2.4-2.4 2.4zm15-3.4h-11.142c-0.445-1.722-1.996-3-3.858-3s-3.413 1.278-3.858 3h-1.142c-0.552 0-1 0.447-1 1s0.448 1 1 1h1.142c0.445 1.723 1.996 3 3.858 3s3.413-1.277 3.858-3h11.142c0.552 0 1-0.447 1-1s-0.448-1-1-1z"/>
  </g>
 </g>
</svg>

<svg width="40px" height="40px" viewBox="0 0 40 40" version="1.1" xmlns="http://www.w3.org/2000/svg" xmlns:xlink="http://www.w3.org/1999/xlink">
    <defs>
        <filter x="-1.7%" y="-0.9%" width="103.4%" height="101.8%" filterUnits="objectBoundingBox" id="filter-1">
            <feOffset dx="0" dy="2" in="SourceAlpha" result="shadowOffsetOuter1"></feOffset>
            <feGaussianBlur stdDeviation="2" in="shadowOffsetOuter1" result="shadowBlurOuter1"></feGaussianBlur>
            <feColorMatrix values="0 0 0 0 0   0 0 0 0 0   0 0 0 0 0  0 0 0 0.5 0" type="matrix" in="shadowBlurOuter1" result="shadowMatrixOuter1"></feColorMatrix>
            <feMerge>
                <feMergeNode in="shadowMatrixOuter1"></feMergeNode>
                <feMergeNode in="SourceGraphic"></feMergeNode>
            </feMerge>
        </filter>
    </defs>
    <g id="Page-1" stroke="none" stroke-width="1" fill="none" fill-rule="evenodd">
        <g id="Icon-Set" filter="url(#filter-1)" transform="translate(-148.000000, -357.000000)" fill="#FFFFFE">
            <path d="M182,387 C182,388.104 181.104,389 180,389 L156,389 C154.896,389 154,388.104 154,387 L154,363 C154,361.896 154.896,361 156,361 L180,361 C181.104,361 182,361.896 182,363 L182,387 L182,387 Z M180,359 L156,359 C153.791,359 152,360.791 152,363 L152,387 C152,389.209 153.791,391 156,391 L180,391 C182.209,391 184,389.209 184,387 L184,363 C184,360.791 182.209,359 180,359 L180,359 Z M172,378.4 C170.674,378.4 169.6,377.325 169.6,376 C169.6,374.675 170.674,373.6 172,373.6 C173.326,373.6 174.4,374.675 174.4,376 C174.4,377.325 173.326,378.4 172,378.4 L172,378.4 Z M178,375 L175.858,375 C175.413,373.277 173.862,372 172,372 C170.138,372 168.588,373.277 168.142,375 L158,375 C157.448,375 157,375.448 157,376 C157,376.553 157.448,377 158,377 L168.142,377 C168.587,378.723 170.138,380 172,380 C173.862,380 175.413,378.723 175.858,377 L178,377 C178.552,377 179,376.553 179,376 C179,375.448 178.552,375 178,375 L178,375 Z M163,370.4 C161.674,370.4 160.6,369.325 160.6,368 C160.6,366.675 161.674,365.601 163,365.601 C164.326,365.601 165.4,366.675 165.4,368 C165.4,369.325 164.326,370.4 163,370.4 L163,370.4 Z M178,367 L166.858,367 C166.413,365.277 164.862,364 163,364 C161.138,364 159.587,365.277 159.142,367 L158,367 C157.448,367 157,367.448 157,368 C157,368.553 157.448,369 158,369 L159.142,369 C159.587,370.723 161.138,372 163,372 C164.862,372 166.413,370.723 166.858,369 L178,369 C178.552,369 179,368.553 179,368 C179,367.448 178.552,367 178,367 L178,367 Z M163,386.4 C161.674,386.4 160.6,385.325 160.6,384 C160.6,382.675 161.674,381.601 163,381.601 C164.326,381.601 165.4,382.675 165.4,384 C165.4,385.325 164.326,386.4 163,386.4 L163,386.4 Z M178,383 L166.858,383 C166.413,381.278 164.862,380 163,380 C161.138,380 159.587,381.278 159.142,383 L158,383 C157.448,383 157,383.447 157,384 C157,384.553 157.448,385 158,385 L159.142,385 C159.587,386.723 161.138,388 163,388 C164.862,388 166.413,386.723 166.858,385 L178,385 C178.552,385 179,384.553 179,384 C179,383.447 178.552,383 178,383 L178,383 Z" id="Fill-171"></path>
        </g>
    </g>
</svg>
